X:1
T:Title
%%score 1 2 3 4
L:1/8
M:4/4
K:G
V:1 treble nm="Trumpet, Staff"
V:2 treble nm="French Horn, Staff-1"
V:3 treble nm="Trombone, Staff-2"
V:4 bass nm="Tuba, Staff-3"
V:1
 A2 B2- B/ z/ A G2 | A2 B2- B/ z/ A G2 | A2 B2 c2 d2 | e2 A6 | B2 c4 d2- | d2 A6 | B2 c4 d2- | %7
w: By~Italian~Traditional * * * *|||||||
 d2 A6 | A2 d2 c2 c2 | B2 B2- B/ z/ A G2 | A2 B2 c2 A2 | B2 G6 |] %12
w: |||||
V:2
 F2 G2- G/ z/ G D2 | F2 G2- G/ z/ G D2 | D2 G2 G2 G2 | G2 G4 F2 | G2 E2 F2 F2 | G2 A2 G2 F2 | %6
w: Ah!~ Ga * bri el,~|Ah!~ Ga * bri el,~|Thou~ tru ly~ did'st~|fore show~ *|In~ weal~ * or~|* woe,~ * *|
 G2 E2 F2 F2 | G2 A2 G2 F2 | A2 G2 A2 F2 | G2 E2 F2 G2 | D2 G2 G2 G2 | F2 G6 |] %12
w: For~ friend~ * or~|* foe,~ * *|How~ God~ with~ us,~|Em man * al~|Should~ stoop~ from~ high~|to~ low.~|
V:3
 D2 D2- D/ z/ C B,2 | D2 D2- D/ z/ D B,2 | D2 D2 C2 B,2 | G,2 D6 | D2 C4 B,2- | B,2 D6 | %6
 D2 C4 B,2- | B,2 D6 | D2 D2 E2 C2 | D2 C2 C2 B,2 | D2 D2 E2 D2 | D2 B,6 |] %12
V:4
 D,2 G,2- G,/ z/ G, G,2 | D,2 G,2- G,/ z/ G, G,2 | F,2 G,2 E,2 B,,2 | C,2 D,6 | G,2 A,4 B,2 | %5
 G,2 F,2 E,2 D,2 | G,2 A,4 B,2 | G,2 F,2 E,2 D,2 | D2 B,2 A,2 A,2 | G,2 C,2 D,2 E,2 | %10
 F,2 G,2 C,2 D,2 | D,2 G,6 |] %12

